junior/html-css/02-huddle-landing-page-with-curved-sections-master/images/logo-white.svg

<svg width="240" height="39" viewBox="0 0 240 39" fill="none" xmlns="http://www.w3.org/2000/svg">
<path d="M27.967 0.878913C20.242 0.874913 12.182 2.61491 4.04696 4.87191C3.01396 5.07991 2.00596 5.75591 1.47296 6.59191C0.982961 7.37991 0.804961 8.17091 0.651961 8.99991C-0.138039 13.4279 -0.0420386 17.7759 0.121961 22.5939C0.157961 23.6969 0.321961 25.0039 0.836961 25.7989C1.37496 26.6019 2.29696 27.1119 3.39796 27.2789C4.80457 27.4852 6.21558 27.6603 7.62996 27.8039L7.31796 36.5019C7.26996 37.1939 7.60796 37.7689 8.02796 38.0999C8.40396 38.3859 8.82296 38.5129 9.25296 38.5449C10.113 38.6099 11.122 38.2419 11.623 37.2879C13.818 33.0639 15.195 31.1989 17.94 28.3929C25.098 28.5689 31.347 28.1709 38.422 27.6479C40.923 27.5829 42.64 25.5379 43.094 23.9049C44.451 19.6729 44.662 14.4489 44.806 9.16791C44.867 7.07491 44.141 5.01991 42.856 3.93391C41.634 2.94291 40.154 2.58391 38.798 2.21591C35.031 1.36291 31.263 0.904913 27.967 0.878913ZM38.257 4.18891C39.615 4.55791 40.812 4.91291 41.567 5.52591C42.827 6.86491 42.785 7.75591 42.767 9.20091C42.625 14.3229 42.379 19.2939 41.223 23.0609C40.725 24.4659 39.857 25.4659 38.217 25.6169C31.009 26.1499 24.755 26.5619 17.51 26.3559C17.3689 26.3514 17.2284 26.3759 17.0972 26.4278C16.9659 26.4798 16.8467 26.5581 16.747 26.6579C13.703 29.7319 12.146 31.8679 9.82596 36.3339C9.77196 36.4359 9.65496 36.4979 9.51096 36.5089C9.41396 36.5039 9.37496 36.4289 9.36896 36.3609L9.68296 26.9289C9.70196 26.4199 9.28196 25.9339 8.77596 25.8789C7.08408 25.7173 5.39681 25.5106 3.71596 25.2589C2.98996 25.1479 2.72196 24.9489 2.52296 24.6529C2.17696 23.8279 2.18496 23.3179 2.15796 22.5249C1.99596 17.7499 1.91596 13.5769 2.64896 9.42491C2.71696 8.81091 2.94696 8.18291 3.19096 7.65791C3.59496 7.02591 4.21396 6.93291 4.83496 6.76091C12.791 4.56391 20.575 2.92091 27.903 2.91591C31.495 3.04591 35.267 3.40591 38.257 4.18891V4.18891ZM10.778 12.2789C9.68196 13.5919 9.79096 15.3749 10.638 16.5689C11.08 17.1939 11.77 17.6969 12.61 17.8109C13.701 17.9009 14.393 17.4589 15.14 16.9509C16.493 15.7749 16.63 13.7229 15.601 12.2409C15.077 11.4859 14.239 11.0329 13.383 11.0009C12.211 11.0129 11.415 11.5359 10.778 12.2779V12.2789ZM22.634 11.2069C21.542 11.2419 20.659 11.9979 20.12 12.8139C19.503 13.7469 19.143 14.9149 19.642 16.0599C20.602 18.2629 23.919 18.2359 25.242 15.9969C25.852 14.9649 25.696 13.7919 25.242 12.9409C24.79 12.0909 24.106 11.3979 23.111 11.2389C22.9534 11.213 22.7936 11.2023 22.634 11.2069V11.2069ZM32.259 11.4139C31.919 11.4059 31.569 11.4379 31.241 11.5249C29.929 11.8749 28.812 13.2289 28.981 14.9619C29.067 15.8339 29.468 16.6839 30.191 17.2699C30.914 17.8549 31.964 18.1169 33.071 17.8899C34.343 17.6299 35.131 16.6049 35.394 15.6149C35.657 14.6249 35.591 13.6159 34.98 12.7979C34.6621 12.3752 34.2517 12.0307 33.7803 11.7908C33.3089 11.551 32.7888 11.422 32.26 11.4139H32.259ZM13.294 13.0369C13.539 13.0389 13.732 13.1169 13.931 13.4029C14.376 14.0449 14.252 15.0179 13.803 15.4079C13.356 15.7979 13.077 15.8319 12.881 15.8059C12.685 15.7789 12.486 15.6439 12.308 15.3919C11.968 14.9119 11.868 14.1359 12.315 13.5819C12.553 13.2659 12.99 13.0689 13.295 13.0369H13.294ZM22.777 13.2599C22.815 13.2659 23.241 13.5129 23.445 13.8959C23.649 14.2789 23.687 14.6349 23.493 14.9619C22.916 15.9379 21.689 15.6739 21.503 15.2489C21.433 15.0869 21.486 14.4359 21.823 13.9289C22.158 13.4199 22.58 13.2289 22.777 13.2589V13.2599ZM33.341 14.0079C33.403 14.0909 33.554 14.6479 33.437 15.0899C33.319 15.5319 33.127 15.8049 32.657 15.9009C32.055 16.0249 31.717 15.9009 31.464 15.6939C31.21 15.4889 31.039 15.1419 31.002 14.7709C30.912 13.8509 31.242 13.6379 31.766 13.4979C32.376 13.3479 33.066 13.6099 33.341 14.0079V14.0079Z" fill="white"/>
<path d="M57.6099 4.99601C57.6259 4.73601 57.7209 4.50201 57.8969 4.29501C57.9825 4.19353 58.0902 4.11288 58.2116 4.05917C58.3331 4.00546 58.4652 3.9801 58.5979 3.98501H65.4239C65.6539 3.98501 65.8909 4.08101 66.1359 4.27201C66.2507 4.35444 66.344 4.46321 66.408 4.58919C66.4721 4.71518 66.5049 4.85469 66.5039 4.99601V15.889H77.9249V4.99601C77.9249 4.72001 78.0209 4.48301 78.2119 4.28401C78.4039 4.08401 78.6519 3.98401 78.9589 3.98401H85.6929C85.9989 3.98401 86.2669 4.06101 86.4969 4.21401C86.7269 4.36801 86.8419 4.61301 86.8419 4.95001V37.1C86.8419 37.437 86.7419 37.69 86.5419 37.858C86.3439 38.027 86.0829 38.111 85.7619 38.111H78.9589C78.6529 38.111 78.4039 38.027 78.2119 37.858C78.0209 37.69 77.9249 37.438 77.9249 37.1V24.047H66.5039V37.1C66.5039 37.422 66.3999 37.67 66.1939 37.847C65.9869 38.023 65.7069 38.111 65.3539 38.111H58.5979C57.9549 38.111 57.6259 37.812 57.6099 37.215V4.99601ZM120.485 37.721C120.286 37.889 120.075 37.996 119.853 38.042C119.645 38.0867 119.434 38.1102 119.222 38.112H115.752C115.476 38.112 115.238 38.062 115.039 37.962C114.839 37.862 114.671 37.728 114.533 37.56C114.392 37.3855 114.276 37.1919 114.189 36.985C114.096 36.7688 114.019 36.5463 113.959 36.319L113.247 33.377C113.017 33.852 112.684 34.392 112.247 34.997C111.774 35.6391 111.213 36.2113 110.581 36.697C109.907 37.227 109.102 37.671 108.168 38.031C107.233 38.391 106.161 38.571 104.95 38.571C103.204 38.571 101.618 38.234 100.193 37.56C98.7977 36.9082 97.5565 35.9682 96.5509 34.802C95.5479 33.638 94.7699 32.278 94.2189 30.722C93.6669 29.168 93.3909 27.509 93.3909 25.748V10.695C93.3909 10.113 93.5179 9.67301 93.7709 9.37401C94.0229 9.07501 94.4249 8.92601 94.9769 8.92601H100.285C100.945 8.92601 101.396 9.03601 101.641 9.25901C101.886 9.48101 102.009 9.91401 102.009 10.557V25.517C102.009 26.177 102.159 26.801 102.457 27.391C102.756 27.981 103.15 28.501 103.641 28.953C104.131 29.405 104.686 29.762 105.307 30.022C105.927 30.282 106.559 30.412 107.203 30.412C107.754 30.412 108.325 30.282 108.915 30.022C109.509 29.7587 110.059 29.4059 110.546 28.976C111.044 28.54 111.454 28.026 111.776 27.436C112.098 26.846 112.258 26.222 112.258 25.564V10.626C112.258 10.366 112.308 10.106 112.408 9.84501C112.508 9.58501 112.657 9.38501 112.856 9.24701C113.055 9.12501 113.243 9.04101 113.419 8.99501C113.595 8.94901 113.799 8.92501 114.028 8.92501H119.222C119.88 8.92501 120.355 9.08701 120.646 9.40801C120.937 9.73001 121.083 10.159 121.083 10.695V36.411C121.083 36.701 121.018 36.97 120.888 37.215C120.758 37.46 120.578 37.652 120.348 37.789L120.485 37.721V37.721ZM147.166 34.549C146.752 34.963 146.296 35.407 145.799 35.882C145.301 36.357 144.753 36.802 144.156 37.215C143.555 37.6306 142.907 37.974 142.226 38.238C141.514 38.5102 140.758 38.6465 139.996 38.64C137.913 38.64 135.994 38.25 134.239 37.468C132.528 36.7173 130.988 35.6266 129.712 34.262C128.448 32.906 127.46 31.309 126.748 29.47C126.035 27.632 125.679 25.656 125.679 23.541C125.679 21.411 126.035 19.431 126.748 17.601C127.46 15.771 128.448 14.177 129.712 12.821C130.986 11.4578 132.527 10.3707 134.239 9.62701C135.994 8.85301 137.913 8.46601 139.996 8.46601C140.839 8.46601 141.609 8.58901 142.306 8.83401C142.978 9.06703 143.619 9.3835 144.213 9.77601C144.788 10.159 145.316 10.592 145.799 11.074C146.281 11.557 146.737 12.028 147.166 12.488V1.98501C147.166 1.49501 147.316 1.08201 147.614 0.745014C147.913 0.407014 148.361 0.239014 148.959 0.239014H154.129C154.329 0.239014 154.539 0.281014 154.761 0.365014C154.983 0.450014 155.186 0.568014 155.371 0.722014C155.554 0.875014 155.703 1.05901 155.818 1.27301C155.933 1.48801 155.991 1.72501 155.991 1.98501V36.342C155.991 37.522 155.371 38.112 154.129 38.112H149.625C149.319 38.112 149.081 38.072 148.913 37.996C148.746 37.9211 148.6 37.8069 148.487 37.663C148.359 37.4944 148.255 37.309 148.177 37.112C148.069 36.8526 147.954 36.5958 147.833 36.342L147.166 34.549V34.549ZM133.952 23.541C133.944 24.5074 134.104 25.4679 134.423 26.38C134.737 27.26 135.185 28.023 135.768 28.666C136.356 29.3141 137.072 29.8342 137.87 30.194C138.69 30.57 139.598 30.757 140.594 30.757C141.574 30.757 142.497 30.581 143.363 30.229C144.204 29.8921 144.972 29.3964 145.626 28.769C146.275 28.1407 146.802 27.3966 147.178 26.575C147.568 25.732 147.787 24.828 147.833 23.863V23.541C147.836 22.5793 147.649 21.6266 147.281 20.738C146.925 19.8669 146.406 19.0715 145.753 18.394C145.098 17.7173 144.317 17.1749 143.455 16.797C142.553 16.402 141.578 16.2023 140.594 16.211C139.598 16.211 138.69 16.406 137.87 16.797C137.05 17.187 136.35 17.72 135.768 18.394C135.176 19.0839 134.72 19.8792 134.423 20.738C134.107 21.6386 133.948 22.5867 133.953 23.541H133.952ZM182.672 34.549C182.258 34.963 181.802 35.407 181.304 35.882C180.806 36.357 180.258 36.802 179.661 37.215C179.06 37.6306 178.412 37.974 177.731 38.238C177.019 38.5102 176.263 38.6465 175.501 38.64C173.418 38.64 171.499 38.25 169.745 37.468C168.034 36.7175 166.493 35.6267 165.217 34.262C163.954 32.906 162.965 31.309 162.253 29.47C161.541 27.632 161.184 25.656 161.184 23.541C161.184 21.411 161.541 19.431 162.253 17.601C162.965 15.771 163.953 14.177 165.217 12.821C166.492 11.4576 168.033 10.3705 169.745 9.62701C171.499 8.85301 173.418 8.46601 175.501 8.46601C176.344 8.46601 177.114 8.58901 177.811 8.83401C178.483 9.06703 179.124 9.3835 179.718 9.77601C180.293 10.159 180.821 10.592 181.304 11.074C181.787 11.557 182.242 12.028 182.671 12.488V1.98501C182.671 1.49501 182.821 1.08201 183.119 0.745014C183.419 0.407014 183.866 0.239014 184.464 0.239014H189.634C189.834 0.239014 190.044 0.281014 190.266 0.365014C190.489 0.450014 190.692 0.568014 190.876 0.722014C191.059 0.875014 191.209 1.05901 191.324 1.27301C191.438 1.48801 191.496 1.72501 191.496 1.98501V36.342C191.496 37.522 190.876 38.112 189.634 38.112H185.13C184.824 38.112 184.586 38.072 184.418 37.996C184.251 37.921 184.106 37.8067 183.993 37.663C183.865 37.4944 183.761 37.309 183.683 37.112C183.574 36.8526 183.459 36.5958 183.338 36.342L182.671 34.549H182.672ZM169.457 23.541C169.449 24.5074 169.609 25.4679 169.928 26.38C170.243 27.26 170.691 28.023 171.273 28.666C171.862 29.3142 172.577 29.8343 173.376 30.194C174.196 30.57 175.103 30.757 176.099 30.757C177.079 30.757 178.002 30.581 178.868 30.229C179.709 29.8922 180.478 29.3965 181.132 28.769C181.781 28.1405 182.306 27.3964 182.682 26.575C183.073 25.732 183.292 24.828 183.338 23.863V23.541C183.341 22.5793 183.154 21.6266 182.786 20.738C182.43 19.8669 181.911 19.0715 181.258 18.394C180.603 17.7173 179.822 17.1749 178.96 16.797C178.058 16.402 177.083 16.2023 176.099 16.211C175.103 16.211 174.195 16.406 173.376 16.797C172.556 17.187 171.855 17.72 171.273 18.394C170.681 19.0839 170.225 19.8792 169.928 20.738C169.612 21.6386 169.453 22.5867 169.458 23.541H169.457ZM197.61 2.00801C197.61 1.51801 197.732 1.10501 197.977 0.768014C198.223 0.430014 198.644 0.262014 199.241 0.262014H204.871C205.025 0.262014 205.186 0.304014 205.354 0.388014C205.531 0.478601 205.69 0.599426 205.825 0.745014C205.971 0.898014 206.093 1.08201 206.193 1.29601C206.293 1.51101 206.343 1.74801 206.343 2.00801V36.342C206.343 36.924 206.178 37.364 205.848 37.663C205.519 37.962 205.094 38.111 204.573 38.111H199.241C198.644 38.111 198.223 37.961 197.977 37.663C197.732 37.364 197.61 36.923 197.61 36.342V2.00801ZM236.31 34.618C234.977 35.8489 233.437 36.8332 231.76 37.525C230.062 38.2248 228.242 38.5803 226.405 38.571C224.305 38.571 222.322 38.188 220.453 37.421C218.626 36.6827 216.957 35.6027 215.535 34.239C214.118 32.8728 212.979 31.2456 212.18 29.447C211.352 27.609 210.939 25.61 210.939 23.449C210.939 22.101 211.103 20.795 211.433 19.531C211.752 18.2943 212.223 17.1019 212.835 15.981C213.44 14.8778 214.181 13.8548 215.041 12.936C215.898 12.0156 216.876 11.2154 217.948 10.557C219.038 9.89017 220.213 9.37224 221.441 9.01701C222.733 8.64455 224.071 8.459 225.416 8.46601C226.688 8.46601 227.921 8.63501 229.116 8.97201C230.311 9.30901 231.434 9.78401 232.483 10.396C233.533 11.009 234.493 11.745 235.367 12.603C236.229 13.4467 236.985 14.392 237.619 15.418C238.247 16.4366 238.738 17.5338 239.079 18.681C239.423 19.838 239.596 21.029 239.596 22.254C239.596 23.051 239.584 23.702 239.561 24.208C239.538 24.713 239.419 25.116 239.205 25.414C238.99 25.714 238.635 25.92 238.136 26.034C237.638 26.15 236.906 26.207 235.942 26.207H219.396C219.549 27.187 219.859 28.007 220.326 28.667C220.758 29.2917 221.309 29.826 221.946 30.24C222.559 30.631 223.21 30.91 223.9 31.08C224.538 31.2418 225.194 31.3264 225.853 31.332C226.405 31.332 226.971 31.274 227.553 31.16C228.126 31.0474 228.691 30.8937 229.243 30.7C229.759 30.5207 230.258 30.2976 230.736 30.033C231.188 29.781 231.552 29.516 231.828 29.241C232.073 29.041 232.284 28.892 232.46 28.792C232.636 28.692 232.824 28.643 233.023 28.643C233.223 28.643 233.425 28.713 233.633 28.85C233.885 29.0261 234.119 29.2261 234.333 29.447L236.769 32.205C236.937 32.405 237.045 32.585 237.091 32.745C237.137 32.906 237.16 33.071 237.16 33.239C237.16 33.546 237.075 33.81 236.907 34.032C236.737 34.2553 236.536 34.4527 236.309 34.618H236.31ZM225.256 15.475C224.658 15.475 224.08 15.594 223.521 15.831C222.954 16.0732 222.423 16.3944 221.946 16.785C221.456 17.183 221.016 17.635 220.625 18.141C220.252 18.6181 219.932 19.1345 219.671 19.681H231.414C231.106 19.1049 230.757 18.5517 230.369 18.026C230 17.5272 229.567 17.0791 229.082 16.693C228.585 16.3024 228.025 15.9994 227.427 15.797C226.807 15.582 226.083 15.475 225.256 15.475Z" fill="white"/>
</svg>

<svg width="240" height="39" xmlns="http://www.w3.org/2000/svg"><g fill-rule="nonzero" fill="none"><path d="M27.967.879C20.242.875 12.182 2.615 4.047 4.872c-1.033.208-2.041.884-2.574 1.72C.983 7.38.805 8.171.652 9c-.79 4.428-.694 8.776-.53 13.594.036 1.103.2 2.41.715 3.205.538.803 1.46 1.313 2.561 1.48a95.99 95.99 0 0 0 4.232.525l-.312 8.698c-.048.692.29 1.267.71 1.598.376.286.795.413 1.225.445.86.065 1.869-.303 2.37-1.257 2.195-4.224 3.572-6.089 6.317-8.895 7.158.176 13.407-.222 20.482-.745 2.501-.065 4.218-2.11 4.672-3.743 1.357-4.232 1.568-9.456 1.712-14.737.061-2.093-.665-4.148-1.95-5.234-1.222-.991-2.702-1.35-4.058-1.718C35.031 1.363 31.263.905 27.967.879zm10.29 3.31c1.358.369 2.555.724 3.31 1.337 1.26 1.339 1.218 2.23 1.2 3.675-.142 5.122-.388 10.093-1.544 13.86-.498 1.405-1.366 2.405-3.006 2.556-7.208.533-13.462.945-20.707.739a1.032 1.032 0 0 0-.763.302c-3.044 3.074-4.601 5.21-6.921 9.676-.054.102-.171.164-.315.175-.097-.005-.136-.08-.142-.148l.314-9.432c.019-.509-.401-.995-.907-1.05a95.48 95.48 0 0 1-5.06-.62c-.726-.111-.994-.31-1.193-.606-.346-.825-.338-1.335-.365-2.128-.162-4.775-.242-8.948.491-13.1.068-.614.298-1.242.542-1.767.404-.632 1.023-.725 1.644-.897 7.956-2.197 15.74-3.84 23.068-3.845 3.592.13 7.364.49 10.354 1.273zm-27.479 8.09c-1.096 1.313-.987 3.096-.14 4.29.442.625 1.132 1.128 1.972 1.242 1.091.09 1.783-.352 2.53-.86 1.353-1.176 1.49-3.228.461-4.71-.524-.755-1.362-1.208-2.218-1.24-1.172.012-1.968.535-2.605 1.277zm11.856-1.072c-1.092.035-1.975.791-2.514 1.607-.617.933-.977 2.101-.478 3.246.96 2.203 4.277 2.176 5.6-.063.61-1.032.454-2.205 0-3.056-.452-.85-1.136-1.543-2.131-1.702a2.494 2.494 0 0 0-.477-.032zm9.625.207c-.34-.008-.69.024-1.018.111-1.312.35-2.429 1.704-2.26 3.437.086.872.487 1.722 1.21 2.308.723.585 1.773.847 2.88.62 1.272-.26 2.06-1.285 2.323-2.275.263-.99.197-1.999-.414-2.817a3.47 3.47 0 0 0-2.72-1.384zm-18.965 1.623c.245.002.438.08.637.366.445.642.321 1.615-.128 2.005-.447.39-.726.424-.922.398-.196-.027-.395-.162-.573-.414-.34-.48-.44-1.256.007-1.81.238-.316.675-.513.98-.545zm9.483.223c.038.006.464.253.668.636.204.383.242.739.048 1.066-.577.976-1.804.712-1.99.287-.07-.162-.017-.813.32-1.32.335-.509.757-.7.954-.67zm10.564.748c.062.083.213.64.096 1.082-.118.442-.31.715-.78.811-.602.124-.94 0-1.193-.207-.254-.205-.425-.552-.462-.923-.09-.92.24-1.133.764-1.273.61-.15 1.3.112 1.575.51z" fill="#fff"/><path d="M57.61 4.996c.016-.26.111-.494.287-.701a.875.875 0 0 1 .701-.31h6.826c.23 0 .467.096.712.287a.883.883 0 0 1 .368.724v10.893h11.421V4.996c0-.276.096-.513.287-.712.192-.2.44-.3.747-.3h6.734c.306 0 .574.077.804.23.23.154.345.399.345.736V37.1c0 .337-.1.59-.3.758-.198.169-.459.253-.78.253h-6.803c-.306 0-.555-.084-.747-.253-.191-.168-.287-.42-.287-.758V24.047H66.504V37.1c0 .322-.104.57-.31.747-.207.176-.487.264-.84.264h-6.756c-.643 0-.972-.299-.988-.896V4.996zm62.875 32.725c-.199.168-.41.275-.632.321a3.123 3.123 0 0 1-.631.07h-3.47c-.276 0-.514-.05-.713-.15-.2-.1-.368-.234-.506-.402a2.384 2.384 0 0 1-.344-.575 4.884 4.884 0 0 1-.23-.666l-.712-2.942c-.23.475-.563 1.015-1 1.62a8.495 8.495 0 0 1-1.666 1.7c-.674.53-1.479.974-2.413 1.334-.935.36-2.007.54-3.218.54-1.746 0-3.332-.337-4.757-1.011a10.904 10.904 0 0 1-3.642-2.758c-1.003-1.164-1.781-2.524-2.332-4.08-.552-1.554-.828-3.213-.828-4.974V10.695c0-.582.127-1.022.38-1.321.252-.299.654-.448 1.206-.448h5.308c.66 0 1.111.11 1.356.333.245.222.368.655.368 1.298v14.96c0 .66.15 1.284.448 1.874.299.59.693 1.11 1.184 1.562.49.452 1.045.809 1.666 1.069.62.26 1.252.39 1.896.39.551 0 1.122-.13 1.712-.39a6.361 6.361 0 0 0 1.631-1.046c.498-.436.908-.95 1.23-1.54.322-.59.482-1.214.482-1.872V10.626c0-.26.05-.52.15-.781.1-.26.249-.46.448-.598.199-.122.387-.206.563-.252.176-.046.38-.07.609-.07h5.194c.658 0 1.133.162 1.424.483.291.322.437.751.437 1.287v25.716c0 .29-.065.559-.195.804s-.31.437-.54.574l.137-.068zm26.681-3.172c-.414.414-.87.858-1.367 1.333-.498.475-1.046.92-1.643 1.333a9.3 9.3 0 0 1-1.93 1.023 6.097 6.097 0 0 1-2.23.402c-2.083 0-4.002-.39-5.757-1.172a13.777 13.777 0 0 1-4.527-3.206c-1.264-1.356-2.252-2.953-2.964-4.792-.713-1.838-1.069-3.814-1.069-5.929 0-2.13.356-4.11 1.069-5.94.712-1.83 1.7-3.424 2.964-4.78a13.635 13.635 0 0 1 4.527-3.194c1.755-.774 3.674-1.161 5.757-1.161.843 0 1.613.123 2.31.368a8.51 8.51 0 0 1 1.907.942c.575.383 1.103.816 1.586 1.298.482.483.938.954 1.367 1.414V1.985c0-.49.15-.903.448-1.24.299-.338.747-.506 1.345-.506h5.17c.2 0 .41.042.632.126.222.085.425.203.61.357.183.153.332.337.447.551.115.215.173.452.173.712v34.357c0 1.18-.62 1.77-1.862 1.77h-4.504c-.306 0-.544-.04-.712-.116a1.13 1.13 0 0 1-.426-.333 2.319 2.319 0 0 1-.31-.551 17.13 17.13 0 0 0-.344-.77l-.667-1.793zm-13.214-11.008a8.39 8.39 0 0 0 .471 2.839c.314.88.762 1.643 1.345 2.286a6.384 6.384 0 0 0 2.102 1.528c.82.376 1.728.563 2.724.563.98 0 1.903-.176 2.769-.528a7.058 7.058 0 0 0 2.263-1.46 7.256 7.256 0 0 0 1.552-2.194c.39-.843.609-1.747.655-2.712v-.322a7.26 7.26 0 0 0-.552-2.803 7.427 7.427 0 0 0-1.528-2.344 7.242 7.242 0 0 0-2.298-1.597 6.977 6.977 0 0 0-2.861-.586c-.996 0-1.904.195-2.724.586-.82.39-1.52.923-2.102 1.597a7.236 7.236 0 0 0-1.345 2.344 8.35 8.35 0 0 0-.47 2.803zm48.72 11.008c-.414.414-.87.858-1.368 1.333-.498.475-1.046.92-1.643 1.333a9.3 9.3 0 0 1-1.93 1.023 6.097 6.097 0 0 1-2.23.402c-2.083 0-4.002-.39-5.756-1.172a13.777 13.777 0 0 1-4.528-3.206c-1.263-1.356-2.252-2.953-2.964-4.792-.712-1.838-1.069-3.814-1.069-5.929 0-2.13.357-4.11 1.069-5.94s1.7-3.424 2.964-4.78a13.635 13.635 0 0 1 4.528-3.194c1.754-.774 3.673-1.161 5.756-1.161.843 0 1.613.123 2.31.368a8.51 8.51 0 0 1 1.907.942c.575.383 1.103.816 1.586 1.298.483.483.938.954 1.367 1.414V1.985c0-.49.15-.903.448-1.24.3-.338.747-.506 1.345-.506h5.17c.2 0 .41.042.632.126.223.085.426.203.61.357.183.153.333.337.448.551.114.215.172.452.172.712v34.357c0 1.18-.62 1.77-1.862 1.77h-4.504c-.306 0-.544-.04-.712-.116a1.13 1.13 0 0 1-.425-.333 2.319 2.319 0 0 1-.31-.551 17.13 17.13 0 0 0-.345-.77l-.667-1.793zm-13.215-11.008a8.39 8.39 0 0 0 .471 2.839c.315.88.763 1.643 1.345 2.286a6.384 6.384 0 0 0 2.103 1.528c.82.376 1.727.563 2.723.563.98 0 1.903-.176 2.769-.528a7.058 7.058 0 0 0 2.264-1.46 7.256 7.256 0 0 0 1.55-2.194c.391-.843.61-1.747.656-2.712v-.322a7.26 7.26 0 0 0-.552-2.803 7.427 7.427 0 0 0-1.528-2.344 7.242 7.242 0 0 0-2.298-1.597 6.977 6.977 0 0 0-2.861-.586c-.996 0-1.904.195-2.723.586-.82.39-1.521.923-2.103 1.597a7.236 7.236 0 0 0-1.345 2.344 8.35 8.35 0 0 0-.47 2.803zM197.61 2.008c0-.49.122-.903.367-1.24.246-.338.667-.506 1.264-.506h5.63c.154 0 .315.042.483.126a1.7 1.7 0 0 1 .471.357c.146.153.268.337.368.551.1.215.15.452.15.712v34.334c0 .582-.165 1.022-.495 1.321-.329.299-.754.448-1.275.448h-5.332c-.597 0-1.018-.15-1.264-.448-.245-.299-.367-.74-.367-1.321V2.008zm38.7 32.61a15.31 15.31 0 0 1-4.55 2.907 13.87 13.87 0 0 1-5.355 1.046c-2.1 0-4.083-.383-5.952-1.15a15.494 15.494 0 0 1-4.918-3.182 15.273 15.273 0 0 1-3.355-4.792c-.828-1.838-1.241-3.837-1.241-5.998 0-1.348.164-2.654.494-3.918a15.45 15.45 0 0 1 1.402-3.55 15.055 15.055 0 0 1 2.206-3.045 13.957 13.957 0 0 1 2.907-2.379 14.327 14.327 0 0 1 3.493-1.54 14.084 14.084 0 0 1 3.975-.551c1.272 0 2.505.169 3.7.506 1.195.337 2.318.812 3.367 1.424 1.05.613 2.01 1.349 2.884 2.207a14.896 14.896 0 0 1 2.252 2.815 13.58 13.58 0 0 1 1.46 3.263c.344 1.157.517 2.348.517 3.573 0 .797-.012 1.448-.035 1.954-.023.505-.142.908-.356 1.206-.215.3-.57.506-1.069.62-.498.116-1.23.173-2.194.173h-16.546c.153.98.463 1.8.93 2.46a5.842 5.842 0 0 0 1.62 1.573c.613.391 1.264.67 1.954.84a8.24 8.24 0 0 0 1.953.252c.552 0 1.118-.058 1.7-.172a12.179 12.179 0 0 0 1.69-.46 9.557 9.557 0 0 0 1.493-.667c.452-.252.816-.517 1.092-.792.245-.2.456-.349.632-.449.176-.1.364-.149.563-.149.2 0 .402.07.61.207a4.8 4.8 0 0 1 .7.597l2.436 2.758c.168.2.276.38.322.54.046.161.069.326.069.494 0 .307-.085.571-.253.793a2.89 2.89 0 0 1-.598.586zm-11.054-19.143c-.598 0-1.176.119-1.735.356a6.547 6.547 0 0 0-1.575.954c-.49.398-.93.85-1.321 1.356a8.315 8.315 0 0 0-.954 1.54h11.743a13.536 13.536 0 0 0-1.045-1.655 7.081 7.081 0 0 0-1.287-1.333 5.558 5.558 0 0 0-1.655-.896c-.62-.215-1.344-.322-2.171-.322z" fill="#fff"/></g></svg>
